inst/assets/svg/wi-day-snow.svg

<?xml version="1.0" encoding="UTF-8"?>
<svg xmlns="http://www.w3.org/2000/svg" xmlns:xlink="http://www.w3.org/1999/xlink" width="30pt" height="30pt" viewBox="0 0 30 30" version="1.1">
<g id="surface141">
<path style=" stroke:none;fill-rule:nonzero;fill:rgb(0%,0%,0%);fill-opacity:1;" d="M 1.578125 16.929688 C 1.578125 17.789063 1.789063 18.601563 2.21875 19.339844 C 2.640625 20.078125 3.21875 20.679688 3.960938 21.128906 C 4.691406 21.578125 5.5 21.820313 6.359375 21.839844 C 6.46875 21.839844 6.53125 21.78125 6.53125 21.671875 L 6.53125 20.339844 C 6.53125 20.21875 6.46875 20.148438 6.359375 20.148438 C 5.511719 20.109375 4.78125 19.769531 4.179688 19.128906 C 3.578125 18.488281 3.28125 17.761719 3.28125 16.921875 C 3.28125 16.101563 3.558594 15.378906 4.128906 14.761719 C 4.699219 14.148438 5.390625 13.789063 6.230469 13.691406 L 6.761719 13.628906 C 6.878906 13.628906 6.941406 13.570313 6.941406 13.441406 L 7.019531 12.929688 C 7.128906 11.839844 7.578125 10.929688 8.378906 10.199219 C 9.179688 9.46875 10.128906 9.109375 11.230469 9.109375 C 12.320313 9.109375 13.269531 9.46875 14.078125 10.199219 C 14.898438 10.929688 15.359375 11.828125 15.460938 12.898438 L 15.53125 13.480469 C 15.53125 13.589844 15.589844 13.648438 15.699219 13.648438 L 17.308594 13.648438 C 18.210938 13.648438 18.980469 13.96875 19.621094 14.609375 C 20.261719 15.25 20.578125 16.011719 20.578125 16.898438 C 20.578125 17.738281 20.28125 18.46875 19.679688 19.109375 C 19.078125 19.738281 18.351563 20.078125 17.511719 20.128906 C 17.390625 20.128906 17.320313 20.191406 17.320313 20.320313 L 17.320313 21.648438 C 17.320313 21.761719 17.378906 21.820313 17.511719 21.820313 C 18.839844 21.78125 19.960938 21.28125 20.890625 20.320313 C 21.820313 19.359375 22.28125 18.230469 22.28125 16.910156 C 22.28125 16.148438 22.140625 15.480469 21.851563 14.878906 C 22.601563 13.949219 23 12.851563 23 11.601563 C 23 10.660156 22.769531 9.789063 22.300781 8.988281 C 21.828125 8.191406 21.191406 7.550781 20.390625 7.078125 C 19.589844 6.609375 18.710938 6.378906 17.769531 6.378906 C 16.230469 6.378906 14.941406 6.960938 13.898438 8.109375 C 13.089844 7.671875 12.191406 7.449219 11.210938 7.449219 C 9.800781 7.449219 8.558594 7.890625 7.46875 8.761719 C 6.378906 9.628906 5.691406 10.75 5.378906 12.101563 C 4.261719 12.378906 3.351563 12.960938 2.640625 13.851563 C 1.929688 14.75 1.578125 15.769531 1.578125 16.929688 Z M 7.921875 20.980469 C 7.921875 21.21875 8 21.421875 8.160156 21.589844 C 8.320313 21.761719 8.511719 21.839844 8.75 21.839844 C 8.980469 21.839844 9.179688 21.761719 9.339844 21.589844 C 9.5 21.421875 9.578125 21.21875 9.578125 20.980469 C 9.578125 20.75 9.5 20.558594 9.339844 20.398438 C 9.179688 20.238281 8.988281 20.160156 8.75 20.160156 C 8.519531 20.160156 8.320313 20.238281 8.160156 20.398438 C 8 20.558594 7.921875 20.761719 7.921875 20.980469 Z M 7.921875 24.609375 C 7.921875 24.820313 8 25.011719 8.160156 25.179688 C 8.339844 25.339844 8.53125 25.421875 8.738281 25.421875 C 8.980469 25.421875 9.171875 25.339844 9.328125 25.191406 C 9.488281 25.03125 9.558594 24.839844 9.558594 24.609375 C 9.558594 24.371094 9.480469 24.179688 9.320313 24.019531 C 9.160156 23.859375 8.96875 23.789063 8.730469 23.789063 C 8.5 23.789063 8.300781 23.871094 8.140625 24.019531 C 8 24.171875 7.921875 24.371094 7.921875 24.609375 Z M 9.96875 4.679688 C 9.96875 4.921875 10.050781 5.121094 10.210938 5.269531 L 10.871094 5.929688 C 11.03125 6.089844 11.210938 6.179688 11.398438 6.179688 C 11.609375 6.210938 11.808594 6.140625 12.011719 5.960938 C 12.210938 5.78125 12.308594 5.570313 12.308594 5.328125 C 12.308594 5.089844 12.230469 4.871094 12.070313 4.691406 L 11.429688 4.078125 C 11.28125 3.910156 11.089844 3.828125 10.851563 3.828125 C 10.601563 3.828125 10.390625 3.910156 10.21875 4.078125 C 10.050781 4.238281 9.96875 4.441406 9.96875 4.679688 Z M 11.101563 22.898438 C 11.101563 23.121094 11.179688 23.320313 11.339844 23.5 C 11.5 23.660156 11.699219 23.738281 11.921875 23.738281 C 12.160156 23.738281 12.359375 23.660156 12.519531 23.5 C 12.679688 23.339844 12.769531 23.140625 12.769531 22.898438 C 12.769531 22.671875 12.691406 22.46875 12.519531 22.300781 C 12.351563 22.128906 12.148438 22.050781 11.921875 22.050781 C 11.691406 22.050781 11.5 22.128906 11.339844 22.300781 C 11.179688 22.46875 11.101563 22.671875 11.101563 22.898438 Z M 11.101563 19.300781 C 11.101563 19.53125 11.179688 19.71875 11.339844 19.878906 C 11.5 20.039063 11.699219 20.121094 11.921875 20.121094 C 12.160156 20.121094 12.359375 20.039063 12.519531 19.878906 C 12.691406 19.71875 12.769531 19.53125 12.769531 19.289063 C 12.769531 19.058594 12.691406 18.859375 12.519531 18.699219 C 12.351563 18.539063 12.148438 18.460938 11.921875 18.460938 C 11.691406 18.460938 11.5 18.539063 11.339844 18.699219 C 11.179688 18.859375 11.101563 19.070313 11.101563 19.300781 Z M 11.101563 26.558594 C 11.101563 26.78125 11.179688 26.96875 11.339844 27.128906 C 11.511719 27.300781 11.699219 27.378906 11.921875 27.378906 C 12.160156 27.378906 12.359375 27.300781 12.519531 27.148438 C 12.691406 26.988281 12.769531 26.800781 12.769531 26.558594 C 12.769531 26.320313 12.691406 26.121094 12.519531 25.960938 C 12.351563 25.789063 12.148438 25.710938 11.921875 25.710938 C 11.699219 25.710938 11.511719 25.789063 11.339844 25.960938 C 11.179688 26.128906 11.101563 26.328125 11.101563 26.558594 Z M 14.320313 20.980469 C 14.320313 21.21875 14.398438 21.421875 14.558594 21.589844 C 14.71875 21.761719 14.921875 21.839844 15.148438 21.839844 C 15.378906 21.839844 15.578125 21.761719 15.738281 21.589844 C 15.898438 21.421875 15.980469 21.21875 15.980469 20.980469 C 15.980469 20.75 15.898438 20.558594 15.738281 20.398438 C 15.578125 20.238281 15.390625 20.160156 15.148438 20.160156 C 14.910156 20.160156 14.71875 20.238281 14.558594 20.398438 C 14.398438 20.558594 14.320313 20.761719 14.320313 20.980469 Z M 14.320313 24.609375 C 14.320313 24.820313 14.398438 25.011719 14.550781 25.179688 C 14.730469 25.339844 14.929688 25.421875 15.148438 25.421875 C 15.390625 25.421875 15.578125 25.339844 15.738281 25.191406 C 15.898438 25.03125 15.96875 24.839844 15.96875 24.609375 C 15.96875 24.371094 15.890625 24.179688 15.730469 24.019531 C 15.570313 23.859375 15.378906 23.789063 15.140625 23.789063 C 14.898438 23.789063 14.699219 23.871094 14.539063 24.03125 C 14.398438 24.179688 14.320313 24.378906 14.320313 24.609375 Z M 15.300781 9.058594 C 15.988281 8.398438 16.808594 8.070313 17.769531 8.070313 C 18.738281 8.070313 19.570313 8.421875 20.25 9.109375 C 20.941406 9.800781 21.28125 10.640625 21.28125 11.601563 C 21.28125 12.21875 21.109375 12.839844 20.769531 13.441406 C 19.820313 12.480469 18.660156 12 17.300781 12 L 16.980469 12 C 16.679688 10.828125 16.121094 9.851563 15.300781 9.058594 Z M 16.898438 3.839844 C 16.898438 4.070313 16.980469 4.269531 17.148438 4.421875 C 17.320313 4.570313 17.519531 4.648438 17.761719 4.648438 C 18 4.648438 18.191406 4.570313 18.351563 4.421875 C 18.511719 4.261719 18.578125 4.070313 18.578125 3.839844 L 18.578125 1.800781 C 18.578125 1.558594 18.5 1.359375 18.339844 1.191406 C 18.179688 1.019531 18 0.941406 17.769531 0.941406 C 17.539063 0.941406 17.339844 1.03125 17.171875 1.199219 C 17 1.371094 16.910156 1.570313 16.910156 1.800781 L 16.910156 3.839844 Z M 22.421875 6.109375 C 22.421875 6.339844 22.5 6.539063 22.671875 6.699219 C 22.820313 6.859375 23.011719 6.941406 23.230469 6.960938 C 23.449219 6.980469 23.660156 6.890625 23.851563 6.699219 L 25.28125 5.269531 C 25.460938 5.089844 25.539063 4.890625 25.539063 4.660156 C 25.539063 4.421875 25.449219 4.21875 25.28125 4.050781 C 25.109375 3.878906 24.910156 3.800781 24.679688 3.800781 C 24.460938 3.800781 24.269531 3.878906 24.101563 4.050781 L 22.671875 5.511719 C 22.5 5.671875 22.421875 5.871094 22.421875 6.109375 Z M 23.21875 17.910156 C 23.21875 18.160156 23.300781 18.371094 23.460938 18.53125 L 24.101563 19.160156 C 24.339844 19.320313 24.558594 19.398438 24.738281 19.398438 C 24.949219 19.398438 25.128906 19.308594 25.300781 19.140625 C 25.46875 18.96875 25.550781 18.761719 25.550781 18.53125 C 25.550781 18.300781 25.460938 18.109375 25.289063 17.949219 L 24.671875 17.300781 C 24.488281 17.140625 24.289063 17.058594 24.058594 17.058594 C 23.828125 17.058594 23.628906 17.140625 23.46875 17.308594 C 23.300781 17.46875 23.21875 17.671875 23.21875 17.910156 Z M 24.671875 11.601563 C 24.671875 11.839844 24.761719 12.03125 24.929688 12.191406 C 25.101563 12.371094 25.308594 12.460938 25.550781 12.460938 L 27.570313 12.460938 C 27.800781 12.460938 28 12.378906 28.171875 12.210938 C 28.339844 12.039063 28.421875 11.839844 28.421875 11.601563 C 28.421875 11.359375 28.339844 11.160156 28.171875 11 C 28 10.839844 27.800781 10.75 27.570313 10.75 L 25.550781 10.75 C 25.308594 10.75 25.109375 10.828125 24.929688 11 C 24.75 11.171875 24.671875 11.371094 24.671875 11.601563 Z M 24.671875 11.601563 "/>
</g>
</svg>

<?xml version="1.0" encoding="utf-8"?>
<!-- Generator: Adobe Illustrator 22.0.1, SVG Export Plug-In . SVG Version: 6.00 Build 0)  -->
<svg version="1.1" id="Layer_1" xmlns="http://www.w3.org/2000/svg" xmlns:xlink="http://www.w3.org/1999/xlink" x="0px" y="0px"
	 viewBox="0 0 30 30" style="enable-background:new 0 0 30 30;" xml:space="preserve">
<path d="M1.58,16.93c0,0.86,0.21,1.67,0.64,2.41c0.42,0.74,1,1.34,1.74,1.79c0.73,0.45,1.54,0.69,2.4,0.71
	c0.11,0,0.17-0.06,0.17-0.17v-1.33c0-0.12-0.06-0.19-0.17-0.19c-0.85-0.04-1.58-0.38-2.18-1.02s-0.9-1.37-0.9-2.21
	c0-0.82,0.28-1.54,0.85-2.16c0.57-0.61,1.26-0.97,2.1-1.07l0.53-0.06c0.12,0,0.18-0.06,0.18-0.19l0.08-0.51
	c0.11-1.09,0.56-2,1.36-2.73c0.8-0.73,1.75-1.09,2.85-1.09c1.09,0,2.04,0.36,2.85,1.09c0.82,0.73,1.28,1.63,1.38,2.7l0.07,0.58
	c0,0.11,0.06,0.17,0.17,0.17h1.61c0.9,0,1.67,0.32,2.31,0.96c0.64,0.64,0.96,1.4,0.96,2.29c0,0.84-0.3,1.57-0.9,2.21
	c-0.6,0.63-1.33,0.97-2.17,1.02c-0.12,0-0.19,0.06-0.19,0.19v1.33c0,0.11,0.06,0.17,0.19,0.17c1.33-0.04,2.45-0.54,3.38-1.5
	c0.93-0.96,1.39-2.09,1.39-3.41c0-0.76-0.14-1.43-0.43-2.03C22.6,13.95,23,12.85,23,11.6c0-0.94-0.23-1.81-0.7-2.61
	c-0.47-0.8-1.11-1.44-1.91-1.91s-1.68-0.7-2.62-0.7c-1.54,0-2.83,0.58-3.87,1.73c-0.81-0.44-1.71-0.66-2.69-0.66
	c-1.41,0-2.65,0.44-3.74,1.31s-1.78,1.99-2.09,3.34c-1.12,0.28-2.03,0.86-2.74,1.75C1.93,14.75,1.58,15.77,1.58,16.93z M7.92,20.98
	c0,0.24,0.08,0.44,0.24,0.61c0.16,0.17,0.35,0.25,0.59,0.25c0.23,0,0.43-0.08,0.59-0.25c0.16-0.17,0.24-0.37,0.24-0.61
	c0-0.23-0.08-0.42-0.24-0.58s-0.35-0.24-0.59-0.24c-0.23,0-0.43,0.08-0.59,0.24S7.92,20.76,7.92,20.98z M7.92,24.61
	c0,0.21,0.08,0.4,0.24,0.57c0.18,0.16,0.37,0.24,0.58,0.24c0.24,0,0.43-0.08,0.59-0.23c0.16-0.16,0.23-0.35,0.23-0.58
	c0-0.24-0.08-0.43-0.24-0.59c-0.16-0.16-0.35-0.23-0.59-0.23c-0.23,0-0.43,0.08-0.59,0.23C8,24.17,7.92,24.37,7.92,24.61z
	 M9.97,4.68c0,0.24,0.08,0.44,0.24,0.59l0.66,0.66c0.16,0.16,0.34,0.25,0.53,0.25c0.21,0.03,0.41-0.04,0.61-0.22
	c0.2-0.18,0.3-0.39,0.3-0.63c0-0.24-0.08-0.46-0.24-0.64l-0.64-0.61c-0.15-0.17-0.34-0.25-0.58-0.25c-0.25,0-0.46,0.08-0.63,0.25
	C10.05,4.24,9.97,4.44,9.97,4.68z M11.1,22.9c0,0.22,0.08,0.42,0.24,0.6c0.16,0.16,0.36,0.24,0.58,0.24c0.24,0,0.44-0.08,0.6-0.24
	s0.25-0.36,0.25-0.6c0-0.23-0.08-0.43-0.25-0.6s-0.37-0.25-0.6-0.25c-0.23,0-0.42,0.08-0.58,0.25S11.1,22.67,11.1,22.9z M11.1,19.3
	c0,0.23,0.08,0.42,0.24,0.58s0.36,0.24,0.58,0.24c0.24,0,0.44-0.08,0.6-0.24c0.17-0.16,0.25-0.35,0.25-0.59
	c0-0.23-0.08-0.43-0.25-0.59s-0.37-0.24-0.6-0.24c-0.23,0-0.42,0.08-0.58,0.24S11.1,19.07,11.1,19.3z M11.1,26.56
	c0,0.22,0.08,0.41,0.24,0.57c0.17,0.17,0.36,0.25,0.58,0.25c0.24,0,0.44-0.08,0.6-0.23c0.17-0.16,0.25-0.35,0.25-0.59
	s-0.08-0.44-0.25-0.6c-0.17-0.17-0.37-0.25-0.6-0.25c-0.22,0-0.41,0.08-0.58,0.25C11.18,26.13,11.1,26.33,11.1,26.56z M14.32,20.98
	c0,0.24,0.08,0.44,0.24,0.61c0.16,0.17,0.36,0.25,0.59,0.25s0.43-0.08,0.59-0.25c0.16-0.17,0.24-0.37,0.24-0.61
	c0-0.23-0.08-0.42-0.24-0.58s-0.35-0.24-0.59-0.24s-0.43,0.08-0.59,0.24S14.32,20.76,14.32,20.98z M14.32,24.61
	c0,0.21,0.08,0.4,0.23,0.57c0.18,0.16,0.38,0.24,0.6,0.24c0.24,0,0.43-0.08,0.59-0.23c0.16-0.16,0.23-0.35,0.23-0.58
	c0-0.24-0.08-0.43-0.24-0.59c-0.16-0.16-0.35-0.23-0.59-0.23c-0.24,0-0.44,0.08-0.6,0.24C14.4,24.18,14.32,24.38,14.32,24.61z
	 M15.3,9.06c0.69-0.66,1.51-0.99,2.47-0.99c0.97,0,1.8,0.35,2.48,1.04c0.69,0.69,1.03,1.53,1.03,2.49c0,0.62-0.17,1.24-0.51,1.84
	C19.82,12.48,18.66,12,17.3,12h-0.32C16.68,10.83,16.12,9.85,15.3,9.06z M16.9,3.84c0,0.23,0.08,0.43,0.25,0.58s0.37,0.23,0.61,0.23
	s0.43-0.08,0.59-0.23c0.16-0.16,0.23-0.35,0.23-0.58V1.8c0-0.24-0.08-0.44-0.24-0.61S18,0.94,17.77,0.94s-0.43,0.09-0.6,0.26
	c-0.17,0.17-0.26,0.37-0.26,0.6V3.84z M22.42,6.11c0,0.23,0.08,0.43,0.25,0.59c0.15,0.16,0.34,0.24,0.56,0.26s0.43-0.07,0.62-0.26
	l1.43-1.43c0.18-0.18,0.26-0.38,0.26-0.61c0-0.24-0.09-0.44-0.26-0.61c-0.17-0.17-0.37-0.25-0.6-0.25c-0.22,0-0.41,0.08-0.58,0.25
	l-1.43,1.46C22.5,5.67,22.42,5.87,22.42,6.11z M23.22,17.91c0,0.25,0.08,0.46,0.24,0.62l0.64,0.63c0.24,0.16,0.46,0.24,0.64,0.24
	c0.21,0,0.39-0.09,0.56-0.26c0.17-0.17,0.25-0.38,0.25-0.61c0-0.23-0.09-0.42-0.26-0.58l-0.62-0.65c-0.18-0.16-0.38-0.24-0.61-0.24
	s-0.43,0.08-0.59,0.25C23.3,17.47,23.22,17.67,23.22,17.91z M24.67,11.6c0,0.24,0.09,0.43,0.26,0.59c0.17,0.18,0.38,0.27,0.62,0.27
	h2.02c0.23,0,0.43-0.08,0.6-0.25s0.25-0.37,0.25-0.61c0-0.24-0.08-0.44-0.25-0.6s-0.37-0.25-0.6-0.25h-2.02
	c-0.24,0-0.44,0.08-0.62,0.25S24.67,11.37,24.67,11.6z"/>
</svg>
